brandFactory_export/3.Masa/Portatil cargando_3Masa.svg

<?xml version="1.0" encoding="UTF-8"?>
<svg width="24px" height="24px" viewBox="0 0 24 24" version="1.1" xmlns="http://www.w3.org/2000/svg" xmlns:xlink="http://www.w3.org/1999/xlink">
    <title>3.Masa/Portatil cargando_3Masa</title>
    <g id="Symbols" stroke="none" stroke-width="1" fill="none" fill-rule="evenodd">
        <g id="3.Masa/Portatil-cargando_3Masa" fill="#5CB615" fill-rule="nonzero">
            <path d="M10.3361345,12.605042 L11.512605,12.4504202 L11.5092437,14.487395 C11.5092437,14.6184874 11.6168067,14.7260504 11.7478992,14.7226891 L11.7546218,14.7226891 C11.8521008,14.7226891 11.9394958,14.6689076 11.9798319,14.5815126 L13.5462185,11.112605 C13.5831933,11.0352941 13.5697479,10.9445378 13.5159664,10.8773109 C13.4621849,10.810084 13.3747899,10.7764706 13.287395,10.7865546 L11.9932773,10.9579832 L12.0168067,8.95462185 C12.0168067,8.84033613 11.9327731,8.7394958 11.8184874,8.71932773 C11.7042017,8.69579832 11.589916,8.75630252 11.5428571,8.8605042 L10.0739496,12.2789916 C10.0403361,12.3563025 10.0537815,12.4470588 10.107563,12.5109244 C10.1613445,12.5848739 10.2453782,12.6117647 10.3361345,12.605042 L10.3361345,12.605042 Z M3.80504202,18.4638655 C2.55798319,18.4638655 1.59663866,18.1378151 0.954621849,17.4957983 C0.332773109,16.8773109 0.0168067227,15.9831933 0.0168067227,14.8302521 L0.0168067227,7.60672269 C0.0168067227,6.45714286 0.332773109,5.56638655 0.954621849,4.95462185 C1.59663866,4.32605042 2.55798319,4.00672269 3.80504202,4.00672269 L19.8151261,4 C21.0655462,4 22.0235294,4.31932773 22.6655462,4.9512605 C23.287395,5.56302521 23.6033613,6.45378151 23.6033613,7.60336134 L23.6033613,14.8235294 C23.6033613,15.9731092 23.287395,16.8705882 22.6689076,17.4890756 C22.0235294,18.1310924 21.0621849,18.4571429 19.8151261,18.4571429 C19.8151261,18.4537815 3.80504202,18.4638655 3.80504202,18.4638655 L3.80504202,18.4638655 Z M9.22016807,8.98487395 C9.22016807,8.61176471 9.30756303,8.34957983 9.48571429,8.17478992 C9.66722689,8 9.94285714,7.91260504 10.3361345,7.91260504 L13.2907563,7.91260504 C13.687395,7.91260504 13.9663866,7.99663866 14.1445378,8.16806723 C14.3226891,8.33613445 14.4067227,8.60168067 14.4067227,8.98151261 L14.4067227,14.6554622 C14.4067227,15.0386555 14.3193277,15.307563 14.1445378,15.4756303 C13.9663866,15.6436975 13.687395,15.7243697 13.2941176,15.7243697 L10.3394958,15.7243697 C9.94285714,15.7243697 9.66386555,15.6436975 9.48907563,15.4756303 C9.31092437,15.307563 9.22352941,15.0386555 9.22352941,14.6554622 C9.22016807,14.6554622 9.22016807,8.98487395 9.22016807,8.98487395 L9.22016807,8.98487395 Z M11.0621849,6.84369748 C11.0957983,6.81008403 11.1932773,6.80672269 11.2336134,6.80672269 L12.3865546,6.80672269 C12.4739496,6.80672269 12.5378151,6.82016807 12.5613445,6.84369748 C12.5815126,6.8605042 12.5983193,6.91092437 12.5983193,7.00840336 L12.5983193,7.21008403 L11.0252101,7.21008403 L11.0252101,7.00840336 C11.0252101,6.95798319 11.0285714,6.87394958 11.0621849,6.84369748 Z M10.3327731,16.4302521 L13.287395,16.4302521 C13.8890756,16.4302521 14.3361345,16.2823529 14.6554622,15.9764706 C14.9815126,15.6672269 15.1394958,15.2336134 15.1394958,14.6521008 L15.1394958,8.98487395 C15.1394958,8.41008403 14.9815126,7.97983193 14.6621849,7.67058824 C14.3495798,7.36806723 13.9092437,7.21680672 13.3310924,7.21008403 L13.3310924,7.00504202 C13.3310924,6.72605042 13.2470588,6.50084034 13.0789916,6.3394958 C12.9109244,6.17815126 12.6756303,6.09747899 12.3831933,6.09747899 L11.2302521,6.09747899 C10.9378151,6.09747899 10.702521,6.17815126 10.5310924,6.34285714 C10.3663866,6.50756303 10.2823529,6.72941176 10.2823529,7.00504202 L10.2823529,7.21008403 C9.70756303,7.21680672 9.27058824,7.36806723 8.95462185,7.67731092 C8.63529412,7.98991597 8.47731092,8.41680672 8.47731092,8.98487395 L8.47731092,14.6554622 C8.47731092,15.2369748 8.63529412,15.6705882 8.95798319,15.9798319 C9.28403361,16.2823529 9.73445378,16.4302521 10.3327731,16.4302521 Z M22.887395,19.3176471 C23.2941176,19.3176471 23.6235294,19.6336134 23.6235294,20.0268908 C23.6235294,20.4168067 23.2941176,20.7327731 22.887395,20.7327731 L0.739495798,20.7327731 C0.329411765,20.7327731 0,20.4168067 0,20.0268908 C0,19.6369748 0.329411765,19.3176471 0.736134454,19.3176471 L22.887395,19.3176471 L22.887395,19.3176471 Z" id="Portatil-cargando_3Masa"></path>
        </g>
    </g>
</svg>

<svg width="24" height="24" viewBox="0 0 24 24" xmlns="http://www.w3.org/2000/svg"><path d="M10.336 12.605l1.177-.155-.004 2.037c0 .131.108.24.239.236h.007a.245.245 0 00.225-.141l1.566-3.47a.223.223 0 00-.03-.235.255.255 0 00-.229-.09l-1.294.171.024-2.003a.241.241 0 00-.199-.236.249.249 0 00-.275.142l-1.47 3.418a.224.224 0 00.035.232c.053.074.137.1.228.094zm-6.531 5.859c-1.247 0-2.208-.326-2.85-.968-.622-.619-.938-1.513-.938-2.666V7.607c0-1.15.316-2.04.938-2.652.642-.629 1.603-.948 2.85-.948L19.815 4c1.25 0 2.209.32 2.85.951.622.612.938 1.503.938 2.652v7.22c0 1.15-.316 2.048-.934 2.666-.645.642-1.607.968-2.854.968 0-.003-16.01.007-16.01.007zm5.415-9.48c0-.372.088-.634.266-.81.181-.174.457-.261.85-.261h2.955c.396 0 .675.084.854.255.178.168.262.434.262.814v5.673c0 .384-.088.653-.262.82-.179.169-.458.25-.85.25h-2.956c-.396 0-.675-.081-.85-.25-.178-.167-.265-.436-.265-.82-.004 0-.004-5.67-.004-5.67zm1.842-2.14c.034-.034.131-.037.172-.037h1.153c.087 0 .15.013.174.037.02.017.037.067.037.164v.202h-1.573v-.202c0-.05.004-.134.037-.164zm-.73 9.586h2.955c.602 0 1.05-.148 1.368-.454.327-.309.484-.742.484-1.324V8.985c0-.575-.157-1.005-.477-1.314-.312-.303-.753-.454-1.33-.46v-.206c0-.279-.085-.504-.253-.666-.168-.16-.403-.242-.696-.242H11.23c-.292 0-.527.081-.699.246-.165.165-.249.386-.249.662v.205c-.574.007-1.011.158-1.327.467-.32.313-.478.74-.478 1.308v5.67c0 .582.158 1.016.481 1.325.326.302.776.45 1.375.45zm12.555 2.888c.407 0 .737.316.737.709 0 .39-.33.706-.737.706H.74c-.41 0-.739-.316-.739-.706 0-.39.33-.71.736-.71h22.151z" fill="#5CB615" fill-rule="nonzero"/></svg>
